brandFactory_export/3.Masa/Entradas tickets _3Masa.svg

<?xml version="1.0" encoding="UTF-8"?>
<svg width="24px" height="24px" viewBox="0 0 24 24" version="1.1" xmlns="http://www.w3.org/2000/svg" xmlns:xlink="http://www.w3.org/1999/xlink">
    <title>3.Masa/Entradas tickets _3Masa</title>
    <g id="Symbols" stroke="none" stroke-width="1" fill="none" fill-rule="evenodd">
        <g id="3.Masa/Entradas-tickets-_3Masa" fill="#5CB615" fill-rule="nonzero">
            <path d="M3.93613445,10.1378151 L9.18319328,19.1630252 L9.17647059,7.24369748 L3.93613445,10.1378151 Z M18.6521008,0 L21.3378151,0 C22.5983193,0 23.6235294,1.02184874 23.6235294,2.2789916 L23.6235294,19.3781513 C23.6235294,20.6352941 22.5983193,21.6571429 21.3378151,21.6571429 L18.6319328,21.6571429 C18.0537815,21.6571429 17.5563025,21.2436975 17.4453782,20.6789916 C17.3478992,20.1747899 16.9008403,19.8117647 16.3865546,19.8117647 C15.8722689,19.8117647 15.4252101,20.1747899 15.3277311,20.6789916 C15.2168067,21.2470588 14.7159664,21.6571429 14.1411765,21.6571429 L13.1563025,21.6571429 C13.0588235,21.8722689 12.9176471,22.0605042 12.7092437,22.1781513 L10.605042,23.3579832 C10.2890756,23.5361345 9.9394958,23.6235294 9.58655462,23.6235294 C9.39831933,23.6235294 9.20672269,23.6 9.01848739,23.5462185 C8.48067227,23.394958 8.03361345,23.0453782 7.76134454,22.5613445 L0.275630252,9.28403361 C0.00336134454,8.8 -0.0638655462,8.23529412 0.0840336134,7.70084034 C0.235294118,7.16638655 0.58487395,6.71932773 1.07226891,6.44705882 L3.15630252,5.28067227 C3.65042017,5.00504202 4.26218487,5.12941176 4.61176471,5.57983193 C4.88403361,5.93277311 5.38487395,6.03697479 5.77478992,5.81512605 C6.16470588,5.59663866 6.3394958,5.11596639 6.17815126,4.70252101 C5.97310924,4.17142857 6.18151261,3.58319328 6.6789916,3.30756303 L8.76302521,2.14117647 C8.89411765,2.06722689 9.03865546,2.02352941 9.18319328,1.97983193 C9.33109244,0.867226891 10.2823529,0.00336134454 11.4386555,0.00336134454 L14.1243697,0.00336134454 C14.7294118,0.00336134454 15.2336134,0.440336134 15.3210084,1.04201681 C15.3983193,1.56638655 15.8588235,1.96302521 16.389916,1.96302521 C16.9243697,1.96302521 17.3848739,1.56638655 17.4621849,1.04201681 C17.5428571,0.43697479 18.0470588,0 18.6521008,0 Z M12.1714286,4.37647059 C11.8957983,4.37647059 11.6739496,4.59831933 11.6739496,4.87394958 L11.6739496,16.8403361 C11.6739496,17.1159664 11.8957983,17.3378151 12.1714286,17.3378151 L20.7428571,17.3378151 C21.0184874,17.3378151 21.2403361,17.1159664 21.2403361,16.8403361 L21.2403361,4.87058824 C21.2403361,4.59495798 21.0184874,4.37310924 20.7428571,4.37310924 L12.1714286,4.37310924 L12.1714286,4.37647059 Z" id="Entradas-tickets-_3Masa"></path>
        </g>
    </g>
</svg>

<svg width="24" height="24" viewBox="0 0 24 24" xmlns="http://www.w3.org/2000/svg"><path d="M3.936 10.138l5.247 9.025-.007-11.92-5.24 2.895zM18.652 0h2.686a2.285 2.285 0 012.286 2.279v17.1a2.285 2.285 0 01-2.286 2.278h-2.706a1.213 1.213 0 01-1.187-.978 1.077 1.077 0 00-1.058-.867c-.515 0-.962.363-1.06.867-.11.568-.611.978-1.186.978h-.985a1.092 1.092 0 01-.447.521l-2.104 1.18a2.066 2.066 0 01-1.018.266c-.189 0-.38-.024-.569-.078a2.077 2.077 0 01-1.257-.985L.276 9.284a2.083 2.083 0 01.796-2.837l2.084-1.166a1.133 1.133 0 011.456.299.908.908 0 001.566-.877 1.12 1.12 0 01.501-1.395L8.763 2.14c.131-.074.276-.117.42-.161A2.278 2.278 0 0111.44.003h2.685c.605 0 1.11.437 1.197 1.039.077.524.538.921 1.069.921.534 0 .995-.397 1.072-.921A1.192 1.192 0 0118.652 0zm-6.48 4.376a.496.496 0 00-.498.498V16.84c0 .276.222.498.497.498h8.572a.496.496 0 00.497-.498V4.87a.496.496 0 00-.497-.497H12.17v.003z" fill="#5CB615" fill-rule="nonzero"/></svg>
